48x48/apps/mkv-extractor-gui.svg

<svg viewBox="0 0 48 48"><defs><linearGradient id="linearGradient3764" x1="1" x2="47" gradientUnits="userSpaceOnUse" gradientTransform="matrix(0,-1,1,0,-1.5e-6,47.999998)"><stop stop-color="#575757" stop-opacity="1"/><stop offset="1" stop-color="#616161" stop-opacity="1"/></linearGradient><clipPath id="clipPath-519435725"><g transform="translate(0,-1004.3622)"><path d="m -24 13 c 0 1.105 -0.672 2 -1.5 2 -0.828 0 -1.5 -0.895 -1.5 -2 0 -1.105 0.672 -2 1.5 -2 0.828 0 1.5 0.895 1.5 2 z" transform="matrix(15.333333,0,0,11.5,414.99999,878.8622)" fill="#1890d0"/></g></clipPath><clipPath id="clipPath-529463298"><g transform="translate(0,-1004.3622)"><path d="m -24 13 c 0 1.105 -0.672 2 -1.5 2 -0.828 0 -1.5 -0.895 -1.5 -2 0 -1.105 0.672 -2 1.5 -2 0.828 0 1.5 0.895 1.5 2 z" transform="matrix(15.333333,0,0,11.5,414.99999,878.8622)" fill="#1890d0"/></g></clipPath></defs><g><path d="m 36.31 5 c 5.859 4.062 9.688 10.831 9.688 18.5 c 0 12.426 -10.07 22.5 -22.5 22.5 c -7.669 0 -14.438 -3.828 -18.5 -9.688 c 1.037 1.822 2.306 3.499 3.781 4.969 c 4.085 3.712 9.514 5.969 15.469 5.969 c 12.703 0 23 -10.298 23 -23 c 0 -5.954 -2.256 -11.384 -5.969 -15.469 c -1.469 -1.475 -3.147 -2.744 -4.969 -3.781 z m 4.969 3.781 c 3.854 4.113 6.219 9.637 6.219 15.719 c 0 12.703 -10.297 23 -23 23 c -6.081 0 -11.606 -2.364 -15.719 -6.219 c 4.16 4.144 9.883 6.719 16.219 6.719 c 12.703 0 23 -10.298 23 -23 c 0 -6.335 -2.575 -12.06 -6.719 -16.219 z" opacity="0.05"/><path d="m 41.28 8.781 c 3.712 4.085 5.969 9.514 5.969 15.469 c 0 12.703 -10.297 23 -23 23 c -5.954 0 -11.384 -2.256 -15.469 -5.969 c 4.113 3.854 9.637 6.219 15.719 6.219 c 12.703 0 23 -10.298 23 -23 c 0 -6.081 -2.364 -11.606 -6.219 -15.719 z" opacity="0.1"/><path d="m 31.25 2.375 c 8.615 3.154 14.75 11.417 14.75 21.13 c 0 12.426 -10.07 22.5 -22.5 22.5 c -9.708 0 -17.971 -6.135 -21.12 -14.75 a 23 23 0 0 0 44.875 -7 a 23 23 0 0 0 -16 -21.875 z" opacity="0.2"/></g><g><path d="m 24 1 c 12.703 0 23 10.297 23 23 c 0 12.703 -10.297 23 -23 23 -12.703 0 -23 -10.297 -23 -23 0 -12.703 10.297 -23 23 -23 z" fill="url(#linearGradient3764)" fill-opacity="1"/></g><g/><g><g clip-path="url(#clipPath-519435725)"><g transform="translate(1,1)"><g opacity="0.1"><!-- color: #616161 --><g><path d="m 12 20 l 23 -3.836 c 1 -0.234 1 -0.559 1 -1.168 l 0 -2 c 0 -0.445 -0.457 -0.766 -1 -0.77 l -22 3.43 c -1 0.34 -1 0.816 -1 1.336 m 0 3.01" fill="#000" stroke="none" fill-rule="nonzero" fill-opacity="1"/><path d="m 13.773 20 l 20.453 0 c 0.98 0 1.773 0.703 1.773 1.57 l 0 12.855 c 0 0.871 -0.793 1.574 -1.773 1.574 l -20.453 0 c -0.98 0 -1.773 -0.703 -1.773 -1.574 l 0 -12.855 c 0 -0.867 0.793 -1.57 1.773 -1.57 m 0 0" fill="#000" stroke="none" fill-rule="nonzero" fill-opacity="1"/><path d="m 18.5 26.5 l -0.625 1.875 l -1.875 0.625 l 1.875 0.621 l 0.625 1.875 l 0.625 -1.875 l 1.871 -0.621 l -1.871 -0.625 m -0.625 -1.875" fill="#000" stroke="none" fill-rule="nonzero" fill-opacity="1"/><path d="m 31.5 16.5 l -0.875 2.625 l -2.625 0.879 l 2.625 0.875 l 0.875 2.625 l 0.875 -2.625 l 2.625 -0.875 l -2.625 -0.879 m -0.875 -2.625" fill="#000" stroke="none" fill-rule="nonzero" fill-opacity="1"/><path d="m 22.5 15.5 l -0.625 1.871 l -1.871 0.625 l 1.871 0.625 l 0.625 1.875 l 0.625 -1.875 l 1.871 -0.625 l -1.871 -0.625 m -0.625 -1.871" fill="#000" stroke="none" fill-rule="nonzero" fill-opacity="1"/><path d="m 12.5 18 l 2 0 c 0.277 0 0.5 0.199 0.5 0.445 l 0 5.109 c 0 0.246 -0.223 0.445 -0.5 0.445 l -2 0 c -0.277 0 -0.5 -0.199 -0.5 -0.445 l 0 -5.109 c 0 -0.246 0.223 -0.445 0.5 -0.445 m 0 0" fill="#000" stroke="none" fill-rule="nonzero" fill-opacity="1"/><path d="m 14.605 16.602 c -0.52 0.52 -0.867 1.027 -0.348 1.547 l 17.539 17.547 c 0.523 0.523 1.168 0.316 1.691 -0.207 c 0.52 -0.52 0.734 -1.16 0.211 -1.68 l -17.539 -17.547 c -0.52 -0.523 -1.031 -0.18 -1.555 0.34 m 3.34 3.344 c 0.266 -0.266 0.52 -0.43 0.785 -0.164 l 14.492 14.5 c 0.266 0.27 0.055 0.477 -0.211 0.738 c -0.27 0.266 -0.477 0.469 -0.738 0.207 l -14.492 -14.5 c -0.266 -0.266 -0.105 -0.516 0.164 -0.781 m 0 0" fill="#000" stroke="none" fill-rule="nonzero" fill-opacity="1"/></g></g></g></g></g><g><g clip-path="url(#clipPath-529463298)"><!-- color: #616161 --><g><path d="m 12 20 l 23 -3.836 c 1 -0.234 1 -0.559 1 -1.168 l 0 -2 c 0 -0.445 -0.457 -0.766 -1 -0.77 l -22 3.43 c -1 0.34 -1 0.816 -1 1.336 m 0 3.01" fill="#c66f92" stroke="none" fill-rule="nonzero" fill-opacity="1"/><path d="m 13.773 20 l 20.453 0 c 0.98 0 1.773 0.703 1.773 1.57 l 0 12.855 c 0 0.871 -0.793 1.574 -1.773 1.574 l -20.453 0 c -0.98 0 -1.773 -0.703 -1.773 -1.574 l 0 -12.855 c 0 -0.867 0.793 -1.57 1.773 -1.57 m 0 0" fill="#c66f92" stroke="none" fill-rule="nonzero" fill-opacity="1"/><path d="m 18.5 26.5 l -0.625 1.875 l -1.875 0.625 l 1.875 0.621 l 0.625 1.875 l 0.625 -1.875 l 1.871 -0.621 l -1.871 -0.625 m -0.625 -1.875" fill="#f9f9f9" stroke="none" fill-rule="nonzero" fill-opacity="1"/><path d="m 31.5 16.5 l -0.875 2.625 l -2.625 0.879 l 2.625 0.875 l 0.875 2.625 l 0.875 -2.625 l 2.625 -0.875 l -2.625 -0.879 m -0.875 -2.625" fill="#f9f9f9" stroke="none" fill-rule="nonzero" fill-opacity="1"/><path d="m 22.5 15.5 l -0.625 1.871 l -1.871 0.625 l 1.871 0.625 l 0.625 1.875 l 0.625 -1.875 l 1.871 -0.625 l -1.871 -0.625 m -0.625 -1.871" fill="#f9f9f9" stroke="none" fill-rule="nonzero" fill-opacity="1"/><path d="m 12.5 18 l 2 0 c 0.277 0 0.5 0.199 0.5 0.445 l 0 5.109 c 0 0.246 -0.223 0.445 -0.5 0.445 l -2 0 c -0.277 0 -0.5 -0.199 -0.5 -0.445 l 0 -5.109 c 0 -0.246 0.223 -0.445 0.5 -0.445 m 0 0" fill="#c66f92" stroke="none" fill-rule="nonzero" fill-opacity="1"/><path d="m 14.605 16.602 c -0.52 0.52 -0.867 1.027 -0.348 1.547 l 17.539 17.547 c 0.523 0.523 1.168 0.316 1.691 -0.207 c 0.52 -0.52 0.734 -1.16 0.211 -1.68 l -17.539 -17.547 c -0.52 -0.523 -1.031 -0.18 -1.555 0.34 m 3.34 3.344 c 0.266 -0.266 0.52 -0.43 0.785 -0.164 l 14.492 14.5 c 0.266 0.27 0.055 0.477 -0.211 0.738 c -0.27 0.266 -0.477 0.469 -0.738 0.207 l -14.492 -14.5 c -0.266 -0.266 -0.105 -0.516 0.164 -0.781 m 0 0" fill="#f9f9f9" stroke="none" fill-rule="nonzero" fill-opacity="1"/></g></g></g><g><path d="m 40.03 7.531 c 3.712 4.084 5.969 9.514 5.969 15.469 0 12.703 -10.297 23 -23 23 c -5.954 0 -11.384 -2.256 -15.469 -5.969 4.178 4.291 10.01 6.969 16.469 6.969 c 12.703 0 23 -10.298 23 -23 0 -6.462 -2.677 -12.291 -6.969 -16.469 z" opacity="0.1"/></g></svg>

<?xml version="1.0" encoding="UTF-8" standalone="no"?>
<svg
   xmlns:dc="http://purl.org/dc/elements/1.1/"
   xmlns:cc="http://creativecommons.org/ns#"
   xmlns:rdf="http://www.w3.org/1999/02/22-rdf-syntax-ns#"
   xmlns:svg="http://www.w3.org/2000/svg"
   xmlns="http://www.w3.org/2000/svg"
   xmlns:sodipodi="http://sodipodi.sourceforge.net/DTD/sodipodi-0.dtd"
   xmlns:inkscape="http://www.inkscape.org/namespaces/inkscape"
   viewBox="0 0 48 48"
   id="svg2"
   version="1.1"
   inkscape:version="0.48.4 r9939"
   width="100%"
   height="100%"
   sodipodi:docname="mkv-extractor-gui.svg">
  <metadata
     id="metadata85">
    <rdf:RDF>
      <cc:Work
         rdf:about="">
        <dc:format>image/svg+xml</dc:format>
        <dc:type
           rdf:resource="http://purl.org/dc/dcmitype/StillImage" />
      </cc:Work>
    </rdf:RDF>
  </metadata>
  <sodipodi:namedview
     pagecolor="#ffffff"
     bordercolor="#666666"
     borderopacity="1"
     objecttolerance="10"
     gridtolerance="10"
     guidetolerance="10"
     inkscape:pageopacity="0"
     inkscape:pageshadow="2"
     inkscape:window-width="1375"
     inkscape:window-height="876"
     id="namedview83"
     showgrid="false"
     inkscape:zoom="4.9166667"
     inkscape:cx="-0.20338983"
     inkscape:cy="24"
     inkscape:window-x="65"
     inkscape:window-y="24"
     inkscape:window-maximized="1"
     inkscape:current-layer="svg2" />
  <defs
     id="defs4">
    <linearGradient
       id="linearGradient3764"
       x1="1"
       x2="47"
       gradientUnits="userSpaceOnUse"
       gradientTransform="matrix(0,-1,1,0,-1.5e-6,47.999998)">
      <stop
         stop-color="#575757"
         stop-opacity="1"
         id="stop7" />
      <stop
         offset="1"
         stop-color="#616161"
         stop-opacity="1"
         id="stop9" />
    </linearGradient>
    <clipPath
       id="clipPath-519435725">
      <g
         transform="translate(0,-1004.3622)"
         id="g12">
        <path
           d="m -24 13 c 0 1.105 -0.672 2 -1.5 2 -0.828 0 -1.5 -0.895 -1.5 -2 0 -1.105 0.672 -2 1.5 -2 0.828 0 1.5 0.895 1.5 2 z"
           transform="matrix(15.333333,0,0,11.5,414.99999,878.8622)"
           fill="#1890d0"
           id="path14" />
      </g>
    </clipPath>
    <clipPath
       id="clipPath-529463298">
      <g
         transform="translate(0,-1004.3622)"
         id="g17">
        <path
           d="m -24 13 c 0 1.105 -0.672 2 -1.5 2 -0.828 0 -1.5 -0.895 -1.5 -2 0 -1.105 0.672 -2 1.5 -2 0.828 0 1.5 0.895 1.5 2 z"
           transform="matrix(15.333333,0,0,11.5,414.99999,878.8622)"
           fill="#1890d0"
           id="path19" />
      </g>
    </clipPath>
    <linearGradient
       id="linearGradient3764-7"
       x1="1"
       x2="47"
       gradientUnits="userSpaceOnUse"
       gradientTransform="matrix(0,-1,1,0,-1.5e-6,47.999998)">
      <stop
         stop-color="#b5945b"
         stop-opacity="1"
         id="stop7-6" />
      <stop
         offset="1"
         stop-color="#bb9e69"
         stop-opacity="1"
         id="stop9-3" />
    </linearGradient>
    <clipPath
       id="clipPath-899834956">
      <g
         transform="translate(0,-1004.3622)"
         id="g12-1">
        <path
           d="m -24 13 c 0 1.105 -0.672 2 -1.5 2 -0.828 0 -1.5 -0.895 -1.5 -2 0 -1.105 0.672 -2 1.5 -2 0.828 0 1.5 0.895 1.5 2 z"
           transform="matrix(15.333333,0,0,11.5,414.99999,878.8622)"
           fill="#1890d0"
           id="path14-7" />
      </g>
    </clipPath>
    <clipPath
       id="clipPath-909443126">
      <g
         transform="translate(0,-1004.3622)"
         id="g17-29">
        <path
           d="m -24 13 c 0 1.105 -0.672 2 -1.5 2 -0.828 0 -1.5 -0.895 -1.5 -2 0 -1.105 0.672 -2 1.5 -2 0.828 0 1.5 0.895 1.5 2 z"
           transform="matrix(15.333333,0,0,11.5,414.99999,878.8622)"
           fill="#1890d0"
           id="path19-1" />
      </g>
    </clipPath>
    <clipPath
       id="clipPath-909443126-7">
      <g
         transform="translate(0,-1004.3622)"
         id="g17-2">
        <path
           style="fill:#1890d0"
           inkscape:connector-curvature="0"
           d="m -24,13 c 0,1.105 -0.672,2 -1.5,2 -0.828,0 -1.5,-0.895 -1.5,-2 0,-1.105 0.672,-2 1.5,-2 0.828,0 1.5,0.895 1.5,2 z"
           transform="matrix(15.333333,0,0,11.5,414.99999,878.8622)"
           id="path19-3" />
      </g>
    </clipPath>
    <linearGradient
       id="linearGradient3759">
      <stop
         id="stop3761"
         offset="0"
         style="stop-color:#a75e15;stop-opacity:1;" />
      <stop
         id="stop3763"
         offset="1"
         style="stop-color:#ffffff;stop-opacity:0;" />
    </linearGradient>
    <linearGradient
       id="linearGradient3777">
      <stop
         id="stop3779"
         offset="0"
         style="stop-color:#e0dd00;stop-opacity:1;" />
      <stop
         id="stop3781"
         offset="1"
         style="stop-color:#000000;stop-opacity:0;" />
    </linearGradient>
    <clipPath
       id="clipPath-529463298-1">
      <g
         transform="translate(0,-1004.3622)"
         id="g17-28">
        <path
           style="fill:#1890d0"
           inkscape:connector-curvature="0"
           d="m -24,13 c 0,1.105 -0.672,2 -1.5,2 -0.828,0 -1.5,-0.895 -1.5,-2 0,-1.105 0.672,-2 1.5,-2 0.828,0 1.5,0.895 1.5,2 z"
           transform="matrix(15.333333,0,0,11.5,414.99999,878.8622)"
           id="path19-14" />
      </g>
    </clipPath>
  </defs>
  <g
     id="g33" />
  <g
     id="g3109">
    <g
       inkscape:label="shadows"
       id="layer2">
      <rect
         ry="13.03658"
         rx="13.03658"
         y="1"
         x="1"
         height="46"
         width="46"
         id="rect3007"
         style="opacity:0.1;fill:#000000;fill-opacity:1;fill-rule:nonzero;stroke:none" />
      <rect
         style="opacity:0.1;fill:#000000;fill-opacity:1;fill-rule:nonzero;stroke:none"
         id="rect3011"
         width="47"
         height="47"
         x="0.5"
         y="0.5"
         rx="13.319984"
         ry="13.319984" />
      <rect
         style="opacity:0.1;fill:#000000;fill-opacity:1;fill-rule:nonzero;stroke:none"
         id="rect3013"
         width="46.5"
         height="46.5"
         x="0.75"
         y="0.75"
         rx="13.178282"
         ry="13.178282" />
    </g>
    <g
       style="display:inline"
       inkscape:label="background-color"
       id="layer1">
      <rect
         transform="matrix(0,-1,1,0,0,0)"
         ry="12.753176"
         rx="12.753176"
         y="1.5"
         x="-46.5"
         height="45"
         width="45"
         id="rect2988"
         style="fill:#4d4d4d;fill-opacity:1;fill-rule:nonzero;stroke:none" />
    </g>
  </g>
  <g
     transform="translate(0,-0.11286626)"
     id="g59-5">
    <g
       clip-path="url(#clipPath-529463298-1)"
       id="g61-9">
      <!-- color: #616161 -->
      <g
         id="g63-0">
        <path
           style="fill:#c66f92;fill-opacity:1;fill-rule:nonzero;stroke:none"
           inkscape:connector-curvature="0"
           d="m 12,20 23,-3.836 c 1,-0.234 1,-0.559 1,-1.168 l 0,-2 c 0,-0.445 -0.457,-0.766 -1,-0.77 l -22,3.43 c -1,0.34 -1,0.816 -1,1.336 m 0,3.01"
           id="path65-3" />
        <path
           style="fill:#c66f92;fill-opacity:1;fill-rule:nonzero;stroke:none"
           inkscape:connector-curvature="0"
           d="m 13.773,20 20.453,0 c 0.98,0 1.773,0.703 1.773,1.57 l 0,12.855 c 0,0.871 -0.793,1.574 -1.773,1.574 l -20.453,0 C 12.793,35.999 12,35.296 12,34.425 L 12,21.57 C 12,20.703 12.793,20 13.773,20 m 0,0"
           id="path67-7" />
        <path
           style="fill:#f9f9f9;fill-opacity:1;fill-rule:nonzero;stroke:none"
           inkscape:connector-curvature="0"
           d="M 18.5,26.5 17.875,28.375 16,29 17.875,29.621 18.5,31.496 19.125,29.621 20.996,29 19.125,28.375 M 18.5,26.5"
           id="path69-0" />
        <path
           style="fill:#f9f9f9;fill-opacity:1;fill-rule:nonzero;stroke:none"
           inkscape:connector-curvature="0"
           d="M 31.5,16.5 30.625,19.125 28,20.004 30.625,20.879 31.5,23.504 32.375,20.879 35,20.004 32.375,19.125 M 31.5,16.5"
           id="path71-9" />
        <path
           style="fill:#f9f9f9;fill-opacity:1;fill-rule:nonzero;stroke:none"
           inkscape:connector-curvature="0"
           d="m 22.5,15.5 -0.625,1.871 -1.871,0.625 1.871,0.625 0.625,1.875 0.625,-1.875 1.871,-0.625 -1.871,-0.625 M 22.5,15.5"
           id="path73-9" />
        <path
           style="fill:#c66f92;fill-opacity:1;fill-rule:nonzero;stroke:none"
           inkscape:connector-curvature="0"
           d="m 12.5,18 2,0 c 0.277,0 0.5,0.199 0.5,0.445 l 0,5.109 c 0,0.246 -0.223,0.445 -0.5,0.445 l -2,0 C 12.223,23.999 12,23.8 12,23.554 l 0,-5.109 C 12,18.199 12.223,18 12.5,18 m 0,0"
           id="path75-1" />
        <path
           style="fill:#f9f9f9;fill-opacity:1;fill-rule:nonzero;stroke:none"
           inkscape:connector-curvature="0"
           d="m 14.605,16.602 c -0.52,0.52 -0.867,1.027 -0.348,1.547 l 17.539,17.547 c 0.523,0.523 1.168,0.316 1.691,-0.207 0.52,-0.52 0.734,-1.16 0.211,-1.68 L 16.159,16.262 c -0.52,-0.523 -1.031,-0.18 -1.555,0.34 m 3.34,3.344 c 0.266,-0.266 0.52,-0.43 0.785,-0.164 l 14.492,14.5 c 0.266,0.27 0.055,0.477 -0.211,0.738 -0.27,0.266 -0.477,0.469 -0.738,0.207 L 17.78,20.727 c -0.266,-0.266 -0.105,-0.516 0.164,-0.781 m 0,0"
           id="path77-2" />
      </g>
    </g>
  </g>
</svg>
